X:5735
T:Sailor's Bonnet, The
O:england
M:C|
R:Reel
K:D
"D"~A2FA df~f2|dfec "Bm"dBBd|"D"~A2FA dfec|"A7"dBAF "D"ADD2::\
fa (3aaa afdf|afef dB~B2|"Bm"fb (3bbb bafa|bfaf "A7"fee2|\
"D"bf~f2 afef|"G"gfec eBBd|"D"~A2FA dfec|"A7"dBAF "D"ADD2:|


